src/lib/packages/icons/src/assets/filled/message-lock.svg

<svg xmlns="http://www.w3.org/2000/svg" width="24" height="24" fill="none"><path fill="currentColor" d="M18 3H6C4 3 3 4 3 6v15l3-3h12c2 0 3-1 3-3V6c0-2-1-3-3-3Zm-2.5 10.375c0 1-.5 1.5-1.5 1.5h-4c-1 0-1.5-.5-1.5-1.5v-2.25c0-.809.345-1.274 1-1.429V8.25c0-1.378 1.121-2.5 2.5-2.5s2.5 1.122 2.5 2.5v1.446c.655.154 1 .619 1 1.429v2.25ZM13 8.25v1.375h-2V8.25a1.001 1.001 0 0 1 2 0Z"/></svg>

<svg width="24" height="24" viewBox="0 0 24 24" fill="none" xmlns="http://www.w3.org/2000/svg">
<path d="M18 3H6C4 3 3 4 3 6V21L6 18H18C20 18 21 17 21 15V6C21 4 20 3 18 3ZM15.5 13.375C15.5 14.375 15 14.875 14 14.875H10C9 14.875 8.5 14.375 8.5 13.375V11.125C8.5 10.316 8.845 9.85105 9.5 9.69604V8.25C9.5 6.872 10.621 5.75 12 5.75C13.379 5.75 14.5 6.872 14.5 8.25V9.69604C15.155 9.85004 15.5 10.315 15.5 11.125V13.375ZM13 8.25V9.625H11V8.25C11 7.699 11.448 7.25 12 7.25C12.552 7.25 13 7.699 13 8.25Z" fill="currentColor"/>
</svg>
